lib/brands/icons/telegram.svg

<svg xmlns="http://www.w3.org/2000/svg" fill="none" aria-hidden="true" viewBox="0 0 48 48"><g id="telegram-Icon"><g id="Group"><circle id="bg" cx="24" cy="24" r="20" fill="url(#paint0_linear_94_16808)"/><path id="vector" fill="white" d="M33.981 15.7268C34.1591 14.5762 33.0651 13.6679 32.042 14.1171L11.6642 23.0641C10.9305 23.3862 10.9842 24.4975 11.7452 24.7398L15.9476 26.0781C16.7496 26.3335 17.6181 26.2015 18.3185 25.7176L27.793 19.1718C28.0787 18.9744 28.3902 19.3807 28.1461 19.6323L21.3261 26.6638C20.6645 27.3459 20.7958 28.5017 21.5916 29.0007L29.2273 33.789C30.0837 34.326 31.1855 33.7865 31.3457 32.7516L33.981 15.7268Z"/></g></g><defs><linearGradient id="paint0_linear_94_16808" x1="24" x2="24" y1="4" y2="44" gradientUnits="userSpaceOnUse"><stop stop-color="#37BBFE"/><stop offset="1" stop-color="#007DBB"/></linearGradient></defs></svg>

<svg xmlns="http://www.w3.org/2000/svg" fill="none" aria-hidden="true" viewBox="0 0 48 48"><circle cx="24" cy="24" r="20" fill="url(#a)"/><path fill="#fff" d="M33.98 15.727c.179-1.15-.915-2.06-1.938-1.61l-20.378 8.947c-.734.322-.68 1.433.08 1.676l4.203 1.338a2.71 2.71 0 0 0 2.371-.36l9.475-6.546c.285-.198.597.209.353.46l-6.82 7.032c-.662.682-.53 1.838.265 2.337l7.636 4.788c.857.537 1.958-.003 2.118-1.037l2.636-17.025Z"/><defs><linearGradient id="a" x1="24" x2="24" y1="4" y2="44" gradientUnits="userSpaceOnUse"><stop stop-color="#37BBFE"/><stop offset="1" stop-color="#007DBB"/></linearGradient></defs></svg>
